X: 063
M: C|
L: 1/8
K: C
V: 1
e |\
geaf fdgf | ecAc ~d>cB<G | geaf fdgf | ecGB c/c/c ce |
geaf fdgf | ecAc ~dcBG | EGcE FAdf | ecGB c/c/c c |]
V: 2 clef=bass middle=d
z |\
c2c2 g2G2 | c2c2 G2G2 | c2c2 G2B2 | c2G2 c2C :|
z |\
c2c2 g2b2 | c'2c2 g2G2 | c2c2 g2b2 | g2G2 c2cz |
c2c2 g2b2 | a2c2 g2G2 | c2e2 f2F2 | c2G2 c2C |]


